X: 7390
T:MacLeod of Mull
R:Pipe march
O:Scotland
M:6/8
C:P.M. D. MacLeod
K:Bm
|: {afa}f2B {a}B>{d}c{e}A|{a}B>{d}ce {afa}f2a| \
{ef}e>ce {a}f>e{a}c| {a}A>B{GdG}c {aef}e2f| \
{ag}a>c{G}c {g}B>{d}c{e}A| {g}B>{d}ce {aga}f2{g}e | \
{g}f>a{g}a f<ae| {gfg}f>ec {gBG}B3 ::\
{ag}a2f a>f{e}f| {g}e>fa {fg}f2{g}c |\
{gef}e>ce {g}f>e{g}c| {g}A>B{GdG}c {gef}e2f\
|1 {ag}a2f a>f{e}f| {g}e>fa {fg}f2{g}e| \
{g}f>a{g}a f<ae|{gfg}f>ec {gBG}B3\
:|2 {ag}ac{G}c {g}B>{d}c{e}A| {g}B>{d}ce {gfg}f2{g}e| \
{g}f>a{g}a f<ae| {gfg}f>ec {gBG}B3:|\
|: {g}B>{d}c{e}A {GdG}B3| {g}B>{d}ce {g}f>ga| \
c<{d}AB {gcd}c2{e}B| {g}c2{GdGe}A {g}c<ef| \
{g}B>{d}c{e}A {GdG}B3| {g}B>{d}ce {gef}f2{g}e| \
{g}f>a{g}a f<ae| {gfg}f<ec {gBG}B2 ::\
 {g}f| \
a2{GdG}f {g}e>f{e}f| {g}B>f{e}f {gfg}f2{g}e| \
{g}f>a{g}a e>f{e}f| {g}A>e{A}e {gef}e2{g}c\
|1 a2{GdG}f {g}e>f{e}f| {g}B>f{e}f {gfg}f2{g}e| \
{g}f>a{g}a f<ae| {gfg}f>ec {gBG}B2\
:|2 {g}B2{GdGe}B {gcd}c>{e}B{d}c| \
{g}B>{d}ce {gfg}f2{g}e| {g}f>a{g}a f<ae| {gfg}f>ec {gBG}B2|]
